X:1002
T:The Infare/Will Ye Go and Marry Ketty?
P:Will ye go and marry Ketty?
C:Stewart's Coll., 1761
R:Strathspey (8x16)
B:RSCDS 10-2
Z:Anselm Lingnau <anselm@strathspey.org>
M:4/4
L:1/8
K:G
c|"G"B<G G>A B>A B<d|B<G G>A B/c/d "D7"A2c|\
  "G"B<G G>A B>A B<d|"C"ef/g/ "G"d>g B<g "D"A c|
  "G"B<G G>A B>A B<d|B<G G>A B/c/d "D7"A2c|\
  "G"B<G G>A B>A B<d|"C"ef/g/ "G"d>g B<g "D"A||
c|"G"B<d de/f/ f>d e>d|B<d de/f/ g>B A>c|\
  "G"B<d de/f/ g>d ed|"Am"c<a "Em"B<g "G"B<g "D"Ac|
  "G"B<d de/f/ f>d e>d|B<d de/f/ g>B A>c|\
  "G"B<d de/f/ g>d ed|"Am"c<a "Em"B<g "G"B<g "D"A|]
